!!!!SEGMENT: pl-sa--551-a-ix-31--003_anonim--polonez.krn
!!!cenid: 18xx:502
!!!COM: Anonim
!!!COM-rismid: pe30004985
!!!CDT:
!!!CNT:
!!!OTL: Polonez
!!!PDT:
!!!AGN: Secular; Polonaise
!!!SMS-siglum: PL-SA
!!!SMS-shelfmark: 551/A IX 31
!!!SMS-shelfwork: 003 W
!!!SMS-variant:
!!!SMS-altvar:
!!!NIFC-rismid: 1001069379
!!!URL-scan: http://bc.bdsandomierz.pl/dlibra/publication/1307/edition/1275/content
!!!ONB-nifc: Str. 4, s. 1-3
!!!key:
**kern	**kern
*part2	*part1
*staff2	*staff1
*Ipiano	*Ipiano
*I"Piano	*I"Piano
*clefF4	*clefG2
*k[b-]	*k[b-]
*F:	*F:
*M3/4	*M3/4
*>[A,A,B,A,C]	*>[A,A,B,A,C]
=1	=1
*>A	*>A
4F 4FF/	4.aa 4.cc 4.a\
4A 4AA/	.
.	8ggL 8b- 8g\
4c 4C\	8ff 8a 8f\
.	8eeJ 8g 8e\
=2	=2
4FF/	4.ff 4.a 4.f\
4F\	.
.	8ffL 8a 8f\
4F\	8ff 8g 8e\
.	8ffJ 8a 8f\
=3	=3
!	!LO:N:vis=4
4CC/	4.gg 4.b- 4.g\
4C/	.
.	8ggL 8b- 8g\
4C/	8ff 8a 8f\
.	8ggJ 8b- 8g\
=4	=4
4F 4FF/	4aa 4cc 4a\
!	!LO:TX:a:t=P:problem=takt pokreślony
4C 4CC/	8ggL 8cc 8g\
.	16aaL 16cc\
.	16aaJJ 16cc\
4r	8aaL 8cc\
.	8aaJ 8cc\
=5	=5
4F 4FF/	4aa 4cc 4a\
4A 4AA/	8ryy
.	8ggL 8b- 8g\
4c 4C\	8ff 8a 8f\
.	8eeJ 8g 8e\
=6	=6
4FF/	4ff 4a 4f\
4F\	8ryy
.	8ffL 8a 8f\
4F\	8ee 8g 8e\
.	8ffJ 8a 8f\
!!LO:LB:g=original
=7	=7
4CC/	4gg 4b- 4g\
4C/	8ryy
.	8ggL 8b- 8g\
4C/	8aa 8cc 8a\
.	8ggJ 8b- 8g\
=8	=8
4FF/	4ff 4a 4f\
4F\	4r
!	!LO:TX:a:t=No 1
4r	4cc\
=9:|!	=9:|!
*>B	*>B
!	!LO:TX:a:t=No 2
4FF/	4ff 4a 4f\
4F\	4r
4r	8.eeL 8.cc 8.e\
.	16ffJk 16dd 16f\
=10	=10
4C 4CC/	8.ggL 8.ee 8.g\
.	16ff#XJk 16dd#X 16f#X\
4C 4CC/	4r
4G 4GG/	4r
=11	=11
4C\	4.gg 4.ee 4.g\
4c\	.
.	8eeeL 8gg 8ee\
4r	8ddd 8ff 8dd\
.	8cccJ 8ee 8cc\
=12	=12
4GG/	4.bbn 4.dd 4.bn\
4G\	.
.	8fffL 8aa 8ff\
4r	8eee 8gg 8ee\
.	8dddJ 8ff 8dd\
=13	=13
4C/	4ccc 4ee 4cc\
4c\	4r
4r	8.eeL 8.cc 8.e\
.	16ffJk 16dd 16f\
!!LO:LB:g=original
=14	=14
4C 4CC/	8.ggL 8.ee 8.g\
.	16ff#XJk 16dd#X 16f#X\
*	*rep
4E 4EE/	8.ggL 8.ee 8.g\
.	16ff#XJk 16dd#X 16f#X\
*	*Xrep
*	*rep
4G 4GG/	8.ggL 8.ee 8.g\
.	16ff#XJk 16dd#X 16f#X\
*	*Xrep
=15	=15
4C/	4.gg 4.ee 4.g\
4c\	.
.	8eeeL 8gg 8ee\
4r	8ddd 8ff 8dd\
.	8cccJ 8ee 8cc\
=16	=16
4GG/	4.bbn 4.dd 4.bn\
4G\	.
.	8fffL 8aa 8ff\
4r	8eee 8gg 8ee\
.	8dddJ 8ff 8dd\
=17	=17
4C/	4ccc 4ee 4cc\
!	!LO:TX:a:t=No 1
4c\	4r
4r	8.eeL 8.cc 8.e\
.	16ffJk 16dd 16f\
=18:|!	=18:|!
*>C	*>C
4C/	4ccc 4ee 4cc\
4c\	4r
!LO:TX:a:t=D.C.V.	!
4r	4r
==	==
*-	*-
!!!system-decoration: [(s1,s2)]
!!!AIN: 2 piano
!!!ENC: Marta Lawrence
!!!END: 2020-12-04
!!!ENC: Berenika Jozajtis
!!!END: 2020-06-18
